img/service__02.svg

<svg width="38" height="38" viewBox="0 0 38 38" fill="none" xmlns="http://www.w3.org/2000/svg">
<g clip-path="url(#clip0)">
<path d="M35.7368 23.0713L33.077 17.8471C32.9502 17.5982 32.6946 17.4414 32.4152 17.4414H18.9987H5.58203C5.30268 17.4414 5.04702 17.5982 4.92027 17.8471L2.2605 23.0713C2.14333 23.3015 2.15417 23.576 2.28916 23.7963C2.42416 24.0165 2.66393 24.1507 2.92219 24.1507H3.84905V37.2581C3.84905 37.6681 4.1815 38.0007 4.59161 38.0007H33.4034C33.8135 38.0007 34.1459 37.6681 34.1459 37.2581V24.1508H35.0749C35.3333 24.1508 35.573 24.0165 35.708 23.7964C35.8431 23.576 35.8539 23.3015 35.7368 23.0713ZM31.96 18.9265L33.8637 22.6656H22.1137L20.21 18.9265H31.96ZM6.0373 18.9265H17.7874L15.8837 22.6656H4.1336L6.0373 18.9265ZM32.6609 36.5156H19.7413V32.4001C19.7413 31.99 19.4088 31.6575 18.9987 31.6575C18.5886 31.6575 18.2562 31.99 18.2562 32.4001V36.5156H5.33432V24.1508H16.3389C16.6183 24.1508 16.874 23.9941 17.0007 23.7451L18.2562 21.2792V25.732C18.2562 26.142 18.5886 26.4745 18.9987 26.4745C19.4088 26.4745 19.7413 26.142 19.7413 25.732V21.2792L20.9967 23.7451C21.1235 23.9941 21.3791 24.1508 21.6585 24.1508H32.6609V36.5156Z" fill="white"/>
<path d="M12.6505 32.4492H8.42224C8.01213 32.4492 7.67969 32.7817 7.67969 33.1918C7.67969 33.6018 8.01213 33.9343 8.42224 33.9343H12.6505C13.0606 33.9343 13.3931 33.6018 13.3931 33.1918C13.3931 32.7817 13.0606 32.4492 12.6505 32.4492Z" fill="white"/>
<path d="M19.0011 15.2572C23.2028 15.2572 26.6212 11.8345 26.6212 7.62755C26.6211 3.4217 23.2028 0 19.0011 0C14.7982 0 11.3789 3.4217 11.3789 7.62755C11.3789 11.8345 14.7982 15.2572 19.0011 15.2572ZM19.0011 1.48511C22.384 1.48511 25.1361 4.2406 25.1361 7.62755C25.1361 11.0157 22.384 13.7721 19.0011 13.7721C15.6171 13.7721 12.864 11.0157 12.864 7.62755C12.864 4.2406 15.617 1.48511 19.0011 1.48511Z" fill="white"/>
<path d="M15.6686 8.74111L17.6451 10.4165C17.7797 10.5306 17.9501 10.5926 18.1253 10.5926C18.1463 10.5926 18.1675 10.5917 18.1887 10.5899C18.3857 10.573 18.5679 10.4782 18.6948 10.3265L22.4143 5.88115C22.6774 5.56667 22.6358 5.09834 22.3213 4.83511C22.0068 4.57209 21.5385 4.6136 21.2753 4.92815L18.0354 8.80036L16.6291 7.60819C16.3162 7.34302 15.8476 7.38148 15.5825 7.69447C15.3172 8.00739 15.3558 8.47586 15.6686 8.74111Z" fill="white"/>
<path d="M4.41053 8.36988H7.62327C8.03339 8.36988 8.36583 8.03736 8.36583 7.62732C8.36583 7.21728 8.03339 6.88477 7.62327 6.88477H4.41053C4.00041 6.88477 3.66797 7.21728 3.66797 7.62732C3.66797 8.03736 4.00041 8.36988 4.41053 8.36988Z" fill="white"/>
<path d="M4.06425 3.20222L7.27699 4.89666C7.38749 4.95495 7.50592 4.98258 7.6228 4.98258C7.88938 4.98258 8.1472 4.83859 8.28026 4.58627C8.47155 4.22353 8.33261 3.77436 7.96987 3.58308L4.75705 1.88864C4.39446 1.69735 3.94514 1.83621 3.75386 2.19903C3.56257 2.56177 3.70151 3.01094 4.06425 3.20222Z" fill="white"/>
<path d="M3.75366 13.0545C3.88665 13.3069 4.14447 13.4511 4.41127 13.4511C4.52792 13.4511 4.64636 13.4236 4.7567 13.3654L7.96945 11.6732C8.33227 11.482 8.4715 11.0329 8.28036 10.6701C8.08923 10.3072 7.64013 10.1681 7.27732 10.3591L4.06457 12.0514C3.70175 12.2425 3.5626 12.6916 3.75366 13.0545Z" fill="white"/>
<path d="M30.3715 8.36988H33.5842C33.9943 8.36988 34.3268 8.03736 34.3268 7.62732C34.3268 7.21728 33.9943 6.88477 33.5842 6.88477H30.3715C29.9613 6.88477 29.6289 7.21728 29.6289 7.62732C29.6289 8.03736 29.9613 8.36988 30.3715 8.36988Z" fill="white"/>
<path d="M30.3722 4.98458C30.489 4.98458 30.6075 4.95695 30.718 4.89866L33.9307 3.20422C34.2935 3.01294 34.4324 2.56377 34.2411 2.20103C34.0498 1.83829 33.6007 1.69921 33.2379 1.89064L30.0252 3.58508C29.6624 3.77636 29.5235 4.22554 29.7148 4.58827C29.8479 4.8406 30.1055 4.98458 30.3722 4.98458Z" fill="white"/>
<path d="M30.0255 11.6732L33.2383 13.3655C33.3487 13.4236 33.4671 13.4512 33.5837 13.4512C33.8505 13.4512 34.1083 13.307 34.2413 13.0545C34.4325 12.6917 34.2932 12.2426 33.9304 12.0515L30.7177 10.3592C30.3548 10.168 29.9058 10.3072 29.7146 10.6702C29.5235 11.033 29.6627 11.4821 30.0255 11.6732Z" fill="white"/>
<path d="M19.0004 28.3223C18.5903 28.3223 18.2578 28.6548 18.2578 29.0648V29.0691C18.2578 29.4791 18.5903 29.8095 19.0004 29.8095C19.4105 29.8095 19.7429 29.4749 19.7429 29.0649C19.7429 28.6549 19.4105 28.3223 19.0004 28.3223Z" fill="white"/>
</g>
<defs>
<clipPath id="clip0">
<rect width="38" height="38" fill="white"/>
</clipPath>
</defs>
</svg>

<svg width="38" height="38" fill="none" xmlns="http://www.w3.org/2000/svg"><g clip-path="url(#clip0)" fill="#fff"><path d="M35.737 23.071l-2.66-5.224a.743.743 0 00-.662-.406H5.582a.743.743 0 00-.662.406l-2.66 5.224a.743.743 0 00.662 1.08h.927v13.107c0 .41.332.743.743.743h28.811c.41 0 .743-.333.743-.743V24.151h.929a.743.743 0 00.662-1.08zm-3.777-4.145l1.904 3.74h-11.75l-1.904-3.74h11.75zm-25.923 0h11.75l-1.903 3.74H4.134l1.903-3.74zm26.624 17.59H19.74V32.4a.743.743 0 00-1.485 0v4.116H5.334V24.15H16.34c.28 0 .535-.157.662-.406l1.255-2.466v4.453a.743.743 0 001.485 0v-4.453l1.256 2.466a.743.743 0 00.662.406h11v12.365z"/><path d="M12.65 32.45H8.422a.743.743 0 000 1.484h4.228a.743.743 0 000-1.485zm6.351-17.193c4.202 0 7.62-3.422 7.62-7.63 0-4.205-3.418-7.627-7.62-7.627-4.203 0-7.622 3.422-7.622 7.628 0 4.207 3.42 7.63 7.622 7.63zm0-13.772c3.383 0 6.135 2.756 6.135 6.143 0 3.388-2.752 6.144-6.135 6.144-3.384 0-6.137-2.756-6.137-6.144 0-3.387 2.753-6.143 6.137-6.143z"/><path d="M15.669 8.741l1.976 1.675a.743.743 0 001.05-.09l3.72-4.445a.743.743 0 00-1.14-.953L18.035 8.8 16.63 7.608a.742.742 0 10-.96 1.133zM4.41 8.37h3.213a.743.743 0 000-1.485H4.411a.743.743 0 000 1.485zm-.346-5.168l3.213 1.695a.739.739 0 001.003-.31.743.743 0 00-.31-1.004L4.757 1.89a.743.743 0 10-.693 1.313zm-.31 9.853a.743.743 0 001.003.31l3.212-1.692a.743.743 0 00-.692-1.314l-3.212 1.692a.743.743 0 00-.311 1.004zM30.372 8.37h3.212a.743.743 0 000-1.485h-3.213a.743.743 0 100 1.485zm0-3.385a.74.74 0 00.346-.086l3.213-1.695a.742.742 0 10-.693-1.313l-3.213 1.694a.742.742 0 00.347 1.4zm-.346 6.688l3.212 1.693a.74.74 0 001.003-.311.742.742 0 00-.31-1.003l-3.213-1.693a.742.742 0 10-.692 1.314zM19 28.322a.743.743 0 00-.742.743v.004c0 .41.332.74.742.74a.744.744 0 000-1.487z"/></g><defs><clipPath id="clip0"><path fill="#fff" d="M0 0h38v38H0z"/></clipPath></defs></svg>
